TrafficJam2023/images/icons/star.svg

<svg width="16" height="16" viewBox="0 0 16 16" fill="none" xmlns="http://www.w3.org/2000/svg">
<path d="M8 0L8.40097 2.47593C8.55856 3.44907 9.79174 3.7795 10.4148 3.01553L12 1.0718L11.1093 3.4165C10.7592 4.33806 11.6619 5.24081 12.5835 4.89073L14.9282 4.00001L12.9845 5.58522C12.2205 6.20828 12.5509 7.44145 13.5241 7.59905L16 8.00002L13.5241 8.40099C12.5509 8.55858 12.2205 9.79176 12.9845 10.4148L14.9282 12L12.5835 11.1093C11.6619 10.7592 10.7592 11.662 11.1093 12.5835L12 14.9282L10.4148 12.9845C9.79174 12.2205 8.55856 12.551 8.40097 13.5241L8 16L7.59903 13.5241C7.44144 12.551 6.20826 12.2205 5.58521 12.9845L4 14.9282L4.89072 12.5835C5.2408 11.662 4.33805 10.7592 3.41649 11.1093L1.0718 12L3.01553 10.4148C3.77949 9.79176 3.44906 8.55858 2.47592 8.40099L0 8.00002L2.47592 7.59905C3.44906 7.44145 3.77949 6.20827 3.01553 5.58522L1.0718 4.00001L3.41649 4.89073C4.33805 5.24081 5.2408 4.33806 4.89071 3.4165L4 1.0718L5.58521 3.01553C6.20826 3.7795 7.44144 3.44907 7.59903 2.47593L8 0Z" fill="#FDFDFD"/>
</svg>

<svg xmlns="http://www.w3.org/2000/svg" width="16" height="16" fill="none" viewBox="0 0 16 16"><path fill="#FDFDFD" d="m8 0 .401 2.476c.158.973 1.39 1.304 2.014.54L12 1.072l-.89 2.345c-.35.921.552 1.824 1.474 1.474L14.928 4l-1.944 1.585c-.764.623-.433 1.856.54 2.014L16 8l-2.476.401c-.973.158-1.303 1.39-.54 2.014L14.928 12l-2.345-.89c-.921-.35-1.824.552-1.474 1.474L12 14.928l-1.585-1.944c-.623-.764-1.856-.433-2.014.54L8 16l-.401-2.476c-.158-.973-1.39-1.303-2.014-.54L4 14.928l.89-2.345c.35-.921-.552-1.824-1.474-1.474L1.072 12l1.944-1.585c.763-.623.433-1.856-.54-2.014L0 8l2.476-.4c.973-.159 1.303-1.392.54-2.015L1.072 4l2.344.89c.922.35 1.825-.552 1.475-1.473L4 1.071l1.585 1.944c.623.764 1.856.433 2.014-.54L8 0Z"/></svg>
